X: 23707
T: Lisheen, The
R: slide
M: 12/8
K: Gmajor
|:B3 BAB G2B ~A2G|B/c/dB BAG ~A2B cBA|
BdB BAB ~G3 GBd|~g2e dBG ~A2B cBA:|
|:gfg dBd e/f/ge dBd|gfg aga bgb afd|
gbg dBd e/f/ge dBd|1 gfg aga bgf gba:|2 gfg aga bgf ~g3||

